X:1
T:In The Hall Of The Mountain King
T:In The Hall Of The Mountain King
%%score 1 2 ( 3 4 ) 5
L:1/8
Q:1/4=84
M:4/4
K:Eb
V:1 treble nm="Flute" snm="Fl."
V:2 treble transpose=-9 nm="Alto Saxophone" snm="A. Sax."
V:3 treble transpose=-2 nm="B♭ Trumpet" snm="B♭ Tpt."
V:4 treble transpose=-2 
V:5 perc stafflines=1 nm="Concert Bass Drum" snm="Con. BD "
K:none
I:percmap E B 35 normal
V:1
 z8 | z8 | z8 | z8 :: z8 | z8 | z8 | z8 :: z8 | z8 | z8 | z4 b4 | z8 | z8 | z8 | z8 |: %16
[Q:1/4=90] z2!mf! .g2 z2 .g2 | z2 .g2 z2 .g2 | z2 .g2 z2 .g2 | z2 .B2 b4 :: %20
!f![Q:1/4=104] .g.=a.=b.c' .d'.b !tenuto!d'2 | .e'.=b !tenuto!e'2 .d'.b !tenuto!d'2 | %22
 .g.=a.=b.c' .d'.b !tenuto!d'2 | .e'.=b !tenuto!e'2 !tenuto!d'4 :|[Q:1/4=112] z2 .g2 z2 .g2 | %25
 z2 .g2 z2 .g2 | z2 .g2 z2 .g2 | z2 .B2 b4 | z2 .g2 z2 .g2 | z2 .g2 z2 .g2 | z2 .g2 .g2 .g2 | %31
 .g.g.g.g .g.g.g.g |:!ff![Q:1/4=138] .c.d.e.f .g.e.g.g | .^f.d.f.f .=f._d.f z | %34
 .c.d.e.f .g.e.g.c' | .b.g.e.g !tenuto!b4 :| .g.=a.=b.c' .d'.b !>!d'2 | %37
 .e'.=b !>!e'2 .d'.b !>!d'2 | .g.=a.=b.c' .d'.b !>!d'2 | .e'.=b !>!e'2 !>!d'4 | %40
 .g.=a.=b.c' .d'.b !>!d'2 | .e'.=b !>!e'2 .d'.b !>!d'2 | .g.=a.=b.c' .d'.b !>!d'2 | %43
 .e'.=b !>!e'2 !>!d'4 | .c.d.e.f .g.e.g.g | .^f.d.f.f .=f._d.f z | .c.d.e.f .g.e.g.c' | %47
 .b.g.e.g !tenuto!b4 | .c.d.e.f .g.e.g.g | .^f.d.f.f .=f._d.f z | .c.d.e.f .g.e.g.c' | %51
 .g.e.g.c' !>!c'4 |: z2!ff! !^!c'2 z4 | z2 !^!c'2 z4 |!p! .c!<(!.d.e.f .g.e.g.c' | %55
 .=b.g.b.d' !>!c'4!<)! | z2!ff! !^!c'2 z4 | z2 !^!c'2 z4 | z2!p! .c'2!<(! .c'2 .c'2 | %59
 !^!c'2 !^!c'2 !^!c'2 !^!c'2!<)! | z8 | z8 |!ff! !^!c'2 z2 z4 |] %63
V:2
[K:C]!mp! .A.B.c.d .e.c !tenuto!e2 | .^d.B !tenuto!d2 .=d.^A !tenuto!d2 | .A.B.c.d .e.c.e.a | %3
 .g.e.c.e !tenuto!g4 ::!mp! .e.^f.^g.a .b.g !tenuto!b2 | .c'.^g !tenuto!c'2 .b.g !tenuto!b2 | %6
 .e.^f.^g.a .b.g .b2 | .c'.^g !tenuto!c'2 !tenuto!b4 :: z2!p! .E2 z2 .E2 | z2 .E2 z2 .E2 | %10
 z2 .E2 z2 .E2 | z2 .G2!sfz! !tenuto!G4 |!mp! .c.d.^d.f .g.d !tenuto!g2 | %13
 .^f.d !tenuto!f2 .=f.^c !tenuto!f2 | .c.d.^d.f .g.d.g.c' | .g.^d.g.c' !tenuto!c4 |: %16
 z2!mf! .e2 z2 .e2 | z2 ._e2 z2 .d2 | z2 .c2 z2 .c2 | z2 .c2 z2 .c2 :: z2!f! .B2 z2 .B2 | %21
 z2 .c2 z2 .B2 | z2 .B2 z2 .B2 | z2 .c2 z2 .B2 :| z2 .e2 z2 .e2 | z2 ._e2 z2 .d2 | z2 .c2 z2 .c2 | %27
 z2 .c2 z2 .c2 | z2 .c2 z2 .c2 | z2 ._e2 z2 .d2 | z2 .c2 .c2 .c2 | .c2 .c2 .c2 .c2 |: %32
!p! !>!a4 !>!a4 | !>!a4 !>!a4 | !>!a4 !>!a4 | !>!g4 !>!g4 :| !>!e4 !>!e4 | !>!c4 !>!e4 | %38
!mf! z2 .e2 z2 .e2 | z2 .e2 z2 .e2 |!p! !>!e4 !>!e4 | !>!^c4 !>!e4 |!mf! z2 .e2 z2 .e2 | %43
 z2 .e2 z2 .e2 |!p! !>!a4 !>!a4 | !>!a4 !>!a4 | !>!a4 !>!a4 | !>!g4 !>!g4 | %48
!ff! .a.a.a.a .a.a !>!a2 | .a.a !>!a2 .a.a !>!a2 | .a.a.a.a .a.a.a.a | .a.a.a.a !>!a4 |: %52
 z2!ff! !^!_e2 z4 | z2 !^!_e2 z4 |!p! .A!<(!.B.c.d .e.c.e.a | .^g.e.g.b !>!a4!<)! | %56
 z2!ff! !^!_e2 z4 | z2 !^!_e2 z4 | z2!p! .e2!<(! .e2 .e2 | !^!e2 !^!e2 !^!e2 !^!e2!<)! | z8 | z8 | %62
!ff! !^!e2 z4 z2 |] %63
V:3
[K:F] z2!p! .F2 z2 .F2 | z2 .F2 z2 .F2 | z2 .F2 z2 .F2 | z2 .^G2 z2 .G2 ::!p! .A2 z2 .A2 z2 | %5
 .F2 z2 .A2 z2 | .A2 z2 .A2 z2 | .F2 z2 .A2 z2 ::!mp! .C.D._E.F .G.E !tenuto!G2 | %9
 ._G.D !tenuto!G2 .F._D !tenuto!F2 | .C.D._E.F .G.E.G.c | .B.G._E.G !tenuto!c4 | z2 .F2 z2 .F2 | %13
 z2 .F2 z2 .F2 | z2 .F2 z2 .F2 | z2 .F2 c4 |:!mf! .D.E.F.G .A.F !tenuto!A2 | %17
 .^G.E !tenuto!G2 .=G._E .G2 | .D.E.F.G .A.F.A.d | .c.A.F.A !tenuto!c4 :: z2!f! .A2 z2 .A2 | %21
 z2 .A2 z2 .A2 | z2 .A2 z2 .A2 | z2 .A2 z2 .A2 :|!f! .D.E.F.G .A.F !tenuto!A2 | %25
 .^G.E !tenuto!G2 .=G._E .G2 | .D.E.F.G .A.F.A.d | .c.A.F.A !tenuto!c4 | DEFG AF !tenuto!A2 | %29
 ^GE !tenuto!G2 =G_E !tenuto!G2 | .D.E.F.G .A.F.A.d | .A2 .A2 .A2 .A2 |: z2!f! .A2 z2 .A2 | %33
 z2 .^G2 z2 .=G2 | z2 .A2 z2 .A2 | z2 .c2 z2 .c2 :| z2 .A2 z2 .A2 | z2 .A2 z2 .A2 | %38
 .A.=B.^c.d .e.c !>!e2 | .f.^c !>!f2 !>!e4 | z2 .A2 z2 .A2 | z2 .A2 z2 .A2 | %42
 .A.=B.^c.d .e.c !>!e2 | .[^c^f].c !>!c2 !>!e4 | z2 .A2 z2 .A2 | z2 .^G2 z2 .=G2 | z2 .A2 z2 .A2 | %47
 z2 .c2 z2 .c2 | .D.E.F.G .A.F.A z | .^G.E.G z .=G._E.G z | .D.E.F.G .A.F.A.d | .A.F.A.d !>!d4 |: %52
 z2!ff! !^!d2 z4 | z2 !^!d2 z4 |!p! .D!<(!.E.F.G .A.F.A.d | .^c.A.c.e !>!d4!<)! | z2!ff! !^!d2 z4 | %57
 z2 !^!d2 z4 | z2!p! .d2!<(! .d2 .d2 | !^!d2 !^!d2 !^!d2 !^!d2!<)! | z8 | z8 | %62
!ff!!ff! !^!d2 z2 z4 |] %63
V:4
[K:F] x8 | x8 | x8 | x8 :: x8 | x8 | x8 | x8 :: x8 | x8 | x8 | x8 | x8 | x8 | x8 | x8 |: x8 | x8 | %18
 x8 | x8 :: x8 | x8 | x8 | x8 :| x8 | x8 | x8 | x8 | x8 | x8 | x8 | x8 |: x8 | x8 | x8 | x8 :| x8 | %37
 x8 | x8 | x8 | x8 | x8 | x8 | z x !stemless!^f2 x4 | x8 | x8 | x8 | x8 | x8 | x8 | x8 | x8 |: x8 | %53
 x8 | x8 | x8 | x8 | x8 | x8 | x8 | x8 | x8 | x8 |] %63
V:5
[K:C]!p! E2 z2 z4 | E2 z2 E2 z2 | E2 z2 z4 | E2 z2 E2 z2 ::!p! E2 z2 z4 | E2 z2 E2 z2 | %6
 E2 z2 E2 z2 | E2 z2 E2 z2 :: E2 z2 z4 | E2 z2 E2 z2 | E2 z2 z4 | E2 z2 E2 z2 | E2 z2 z4 | %13
 E2 z2 E2 z2 | E2 z2 E2 E2 | E2 E2 E2 E2 |:!mf! E2 z2 E2 z2 | E2 z2 E2 z2 | E2 z2 E2 z2 | %19
 E2 z2 E2 z2 :: E2 z2 E2 z2 | E2 z2 E2 z2 | E2 z2 E2 z2 | E2 z2 E2 z2 :| E2 z2 E2 z2 | %25
 E2 z2 E2 z2 | E2 z2 E2 z2 | E2 z2 E2 z2 | E2 z2 E2 z2 | E2 z2 E2 z2 | E2 E2 E2 E2 | E2 E2 E2 E2 |: %32
!f! E2 z2 E2 z2 | E2 z2 E2 z2 | E2 z2 E2 z2 | E2 z2 E2 z2 :| E2 z2 E2 z2 | E2 z2 E2 z2 | %38
 E2 z2 E2 z2 | E2 z2 E2 z2 | E2 z2 E2 z2 | E2 z2 E2 z2 | E2 z2 E2 z2 | E2 z2 E2 z2 | E2 z2 E2 z2 | %45
 E2 z2 E2 z2 | E2 z2 E2 z2 | E2 z2 E2 z2 | E2 z2 E2 z2 | E2 z2 E2 z2 | E2 z2 E2 z2 | E2 z2 E2 z2 |: %52
!ff! !>!E2 z2 z4 | !>!E2 z2 z4 |!p!!<(! E2 z2 E2 z2 | E2 z2 E2 z2!<)! |!ff! !>!E2 z2 z4 | %57
 !>!E2 z2 z4 | !>!E2 z2 z4 | z8 |!<(! !///!!>!E8- | !///!E8-!<)! |!ff! !^!E2 z2 z4 |] %63

